X:1
T:Bold Archer
M:6/8
L:1/8
K:D
 A| D2 E F2 G|E-D C D2 F|A-B c d2 c| BA^G A2 F| ABc d3/2 A/2 A|F-E D G3|\
 AAA B2 A| F2 E D2||
